X:1
T:Nonesuch
C:John Playford, The English Dancing Master, 1651
N:arr. Paul Butler, with changes by Aaron Elkiss. Matches Pile 2018
P:AABB x 9 (or sometimes 11 or 15)
K:A minor
M:C|
L:1/4
P:A
|:e | "Am"ec de | cB/c/ Ae | ec de |  [1 c2 c :|]  [2 c2 A ::\
P:B
B | "Em"BG AB | "Am"cB/c/ AB | "Em"BG AB | "Am"c2 A :|

